assets/icons/calendar/day-filled.svg

<?xml version="1.0" encoding="UTF-8" standalone="no"?>
<svg
   viewBox="0 0 24 24"
   height="24"
   id="svg7384"
   version="1.1"
   width="24"
   sodipodi:docname="day-filled.svg"
   inkscape:version="1.2 (1:1.2.1+202207142221+cd75a1ee6d)"
   xmlns:inkscape="http://www.inkscape.org/namespaces/inkscape"
   xmlns:sodipodi="http://sodipodi.sourceforge.net/DTD/sodipodi-0.dtd"
   xmlns="http://www.w3.org/2000/svg"
   xmlns:svg="http://www.w3.org/2000/svg"
   xmlns:rdf="http://www.w3.org/1999/02/22-rdf-syntax-ns#"
   xmlns:cc="http://creativecommons.org/ns#"
   xmlns:dc="http://purl.org/dc/elements/1.1/">
  <sodipodi:namedview
     id="namedview21"
     pagecolor="#ffffff"
     bordercolor="#666666"
     borderopacity="1.0"
     inkscape:pageshadow="2"
     inkscape:pageopacity="0.0"
     inkscape:pagecheckerboard="0"
     showgrid="true"
     inkscape:snap-page="true"
     inkscape:zoom="11.473057"
     inkscape:cx="15.340289"
     inkscape:cy="-3.2685274"
     inkscape:window-width="1920"
     inkscape:window-height="1016"
     inkscape:window-x="0"
     inkscape:window-y="0"
     inkscape:window-maximized="1"
     inkscape:current-layer="svg7384"
     inkscape:showpageshadow="2"
     inkscape:deskcolor="#d1d1d1">
    <inkscape:grid
       type="xygrid"
       id="grid22"
       spacingx="1"
       spacingy="1"
       empspacing="5" />
    <inkscape:grid
       type="xygrid"
       id="grid839"
       dotted="true"
       spacingx="0.5"
       spacingy="0.5"
       empspacing="10" />
  </sodipodi:namedview>
  <metadata
     id="metadata20854">
    <rdf:RDF>
      <cc:Work
         rdf:about="">
        <dc:format>image/svg+xml</dc:format>
        <dc:type
           rdf:resource="http://purl.org/dc/dcmitype/StillImage" />
      </cc:Work>
    </rdf:RDF>
  </metadata>
  <defs
     id="defs7386">
    <linearGradient
       id="linearGradient5606"
       inkscape:swatch="solid">
      <stop
         id="stop5608"
         offset="0"
         style="stop-color:#000000;stop-opacity:1;" />
    </linearGradient>
    <linearGradient
       id="linearGradient4526"
       inkscape:swatch="solid">
      <stop
         id="stop4528"
         offset="0"
         style="stop-color:#ffffff;stop-opacity:1;" />
    </linearGradient>
    <linearGradient
       id="linearGradient3600-4"
       inkscape:swatch="gradient">
      <stop
         id="stop3602-7"
         offset="0"
         style="stop-color:#f4f4f4;stop-opacity:1" />
      <stop
         id="stop3604-6"
         offset="1"
         style="stop-color:#dbdbdb;stop-opacity:1" />
    </linearGradient>
  </defs>
  <path
     id="path301"
     style="color:#000000;fill:#808080;fill-opacity:1;-inkscape-stroke:none"
     d="M 8 2 L 8 3 L 9 3 L 9 2 L 8 2 z M 9 3 L 9 4 L 8 4 L 8 3 L 7 3 C 5.9583384 3 5.0016922 3.114609 4.2421875 3.5703125 C 3.4826828 4.026015 3 4.8750051 3 6 L 3 8.2832031 C 3.1800217 8.0847953 3.3811699 7.91177 3.6054688 7.7675781 C 4.6343262 7.1061698 5.9722282 7 7.5 7 L 16.5 7 C 18.038892 7 19.390472 7.1631269 20.414062 7.8476562 C 20.630113 7.9921401 20.825083 8.1614128 21 8.3535156 L 21 6 C 21 4.8750051 20.517322 4.026015 19.757812 3.5703125 C 18.99831 3.114609 18.041662 3 17 3 L 16 3 L 16 4 L 15 4 L 15 3 L 9 3 z M 15 3 L 16 3 L 16 2 L 15 2 L 15 3 z M 7.5 8 C 6.0277837 8 4.8656667 8.1438343 4.1445312 8.6074219 C 3.4233961 9.0710084 3 9.8452447 3 11.5 L 3 18 C 3 18.140625 3.0068004 18.276433 3.0214844 18.408203 C 3.0361664 18.539973 3.0593327 18.668558 3.0878906 18.791016 C 3.1164496 18.913473 3.1517266 19.029891 3.1933594 19.142578 C 3.2349923 19.255265 3.2820355 19.364338 3.3359375 19.466797 C 3.3898394 19.569255 3.450258 19.666045 3.515625 19.757812 C 3.5809919 19.849582 3.6524875 19.934998 3.7285156 20.015625 C 3.8045445 20.096255 3.884818 20.17121 3.9707031 20.240234 C 4.056589 20.309254 4.1472494 20.372725 4.2421875 20.429688 C 5.0016922 20.885388 5.9583384 21 7 21 L 17 21 C 18.041662 21 18.998309 20.885386 19.757812 20.429688 C 19.852752 20.372728 19.943411 20.309258 20.029297 20.240234 C 20.115187 20.171214 20.195456 20.096252 20.271484 20.015625 C 20.347514 19.934995 20.419008 19.849584 20.484375 19.757812 C 20.549745 19.666043 20.610164 19.569255 20.664062 19.466797 C 20.717962 19.364338 20.765008 19.255265 20.806641 19.142578 C 20.848271 19.029891 20.883551 18.913473 20.912109 18.791016 C 20.940669 18.668558 20.963826 18.539973 20.978516 18.408203 C 20.993196 18.276433 21 18.140625 21 18 L 21 11.496094 C 21.01328 9.9489353 20.5909 9.1682499 19.857422 8.6777344 C 19.123943 8.1872199 17.961096 8 16.5 8 L 7.5 8 z M 7 10 L 9 10 L 9 12 L 7 12 L 7 10 z " />
</svg>

<svg height="24" width="24" xmlns="http://www.w3.org/2000/svg"><path style="color:#000;fill:gray;fill-opacity:1;-inkscape-stroke:none" d="M8 2v1h1V2H8zm1 1v1H8V3H7c-1.042 0-1.998.115-2.758.57C3.482 4.026 3 4.875 3 6v2.283c.18-.198.381-.371.605-.515C4.635 7.106 5.972 7 7.5 7h9c1.539 0 2.89.163 3.914.848.216.144.411.313.586.506V6c0-1.125-.483-1.974-1.242-2.43C18.998 3.115 18.042 3 17 3h-1v1h-1V3H9zm6 0h1V2h-1v1zM7.5 8c-1.472 0-2.634.144-3.355.607C3.423 9.071 3 9.845 3 11.5V18a3.299 3.299 0 0 0 .193 1.143 2.54 2.54 0 0 0 .535.873 2.394 2.394 0 0 0 .514.414c.76.455 1.716.57 2.758.57h10c1.042 0 1.998-.115 2.758-.57a2.426 2.426 0 0 0 .906-.963 2.932 2.932 0 0 0 .248-.676A3.3 3.3 0 0 0 21 18v-6.504c.013-1.547-.41-2.328-1.143-2.818C19.124 8.188 17.961 8 16.5 8h-9zM7 10h2v2H7v-2z"/></svg>
